local/share/icons/dracula-icons-main/scalable/apps/uberwriter.svg

<?xml version="1.0" encoding="UTF-8"?>
<svg xmlns="http://www.w3.org/2000/svg" xmlns:xlink="http://www.w3.org/1999/xlink" width="64" height="64" viewBox="0 0 64 64">
<path fill-rule="nonzero" fill="rgb(94.901961%, 94.901961%, 94.901961%)" fill-opacity="1" d="M 32 5 C 46.910156 5 59 17.089844 59 32 C 59 46.910156 46.910156 59 32 59 C 17.089844 59 5 46.910156 5 32 C 5 17.089844 17.089844 5 32 5 Z M 32 5 "/>
<path fill-rule="nonzero" fill="rgb(100%, 46.666667%, 0%)" fill-opacity="1" d="M 16.496094 21.5 L 16.496094 35.523438 C 16.496094 37.222656 16.675781 38.769531 17.019531 40.183594 C 17.367188 41.558594 17.894531 42.785156 18.71875 43.78125 C 20.78125 46.277344 23.816406 46.996094 26.601562 47 C 30 47.003906 33 46.632812 36 45.5 L 36 21.507812 L 31.5 21.507812 L 31.5 42.5 C 30 42.886719 28.5 43.046875 27.074219 43.0625 C 24.84375 43.082031 23.253906 42.40625 22.304688 41.09375 C 21.363281 39.785156 21 37.605469 21 34.566406 L 21 21.5 "/>
<path fill-rule="nonzero" fill="rgb(20%, 20%, 20%)" fill-opacity="1" d="M 42 14 L 45 14 L 45 50 L 42 50 "/>
</svg>

<svg width="64" height="64" version="1.1" viewBox="0 0 64 64" xmlns="http://www.w3.org/2000/svg">
 <rect x="5" y="5" width="54" height="54" ry="27" fill="#f2f2f2" stroke-width=".9104"/>
 <path d="m16.498 21.5v14.022c0 1.6995 0.177 3.2475 0.522 4.6605 0.3465 1.3755 0.8745 2.6025 1.6995 3.6 2.0625 2.493 5.0955 3.2145 7.881 3.2175 3.399 0.0045 6.399-0.3675 9.399-1.5v-23.994h-4.5v20.994c-1.5 0.3885-3 0.5475-4.4235 0.561-2.2335 0.021-3.8205-0.6555-4.77-1.9665-0.9435-1.311-1.3065-3.489-1.3065-6.528v-13.065" fill="#ff7700" stroke-width="1.5"/>
 <path d="m42 14h3v36h-3" fill="#333333" stroke-width="1.4412"/>
</svg>
